images/item-efficien1.svg

<svg width="55" height="55" viewBox="0 0 55 55" fill="none" xmlns="http://www.w3.org/2000/svg">
<path d="M53.5449 18.5291C52.9993 17.9108 52.3285 17.4157 51.5769 17.0767C50.8252 16.7376 50.0101 16.5623 49.1855 16.5625H35.623V12.6875C35.623 10.1182 34.6024 7.65416 32.7856 5.8374C30.9689 4.02064 28.5048 3 25.9355 3C25.5756 2.99974 25.2227 3.09976 24.9164 3.28884C24.6101 3.47791 24.3626 3.74857 24.2015 4.07047L15.0516 22.375H4.62305C3.59533 22.375 2.60971 22.7833 1.88301 23.51C1.1563 24.2367 0.748047 25.2223 0.748047 26.25V47.5625C0.748047 48.5902 1.1563 49.5758 1.88301 50.3025C2.60971 51.0292 3.59533 51.4375 4.62305 51.4375H46.2793C47.6954 51.438 49.0629 50.9215 50.1251 49.985C51.1874 49.0486 51.8712 47.7565 52.0482 46.3516L54.9545 23.1016C55.0575 22.283 54.985 21.4519 54.742 20.6635C54.499 19.8752 54.0909 19.1475 53.5449 18.5291ZM4.62305 26.25H14.3105V47.5625H4.62305V26.25ZM51.1085 22.6172L48.2023 45.8672C48.1433 46.3355 47.9153 46.7662 47.5612 47.0783C47.2072 47.3905 46.7513 47.5627 46.2793 47.5625H18.1855V24.7702L27.0763 6.98641C28.394 7.25014 29.5796 7.96232 30.4314 9.00175C31.2831 10.0412 31.7484 11.3436 31.748 12.6875V18.5C31.748 19.0139 31.9522 19.5067 32.3155 19.87C32.6789 20.2334 33.1717 20.4375 33.6855 20.4375H49.1855C49.4605 20.4374 49.7323 20.4958 49.9829 20.6089C50.2335 20.7219 50.4572 20.887 50.6391 21.0932C50.821 21.2994 50.9569 21.5419 51.0379 21.8047C51.1188 22.0674 51.1429 22.3444 51.1085 22.6172Z" fill="#F44336"/>
</svg>

<svg xmlns="http://www.w3.org/2000/svg" width="55" height="55" fill="none"><path fill="#F44336" d="M53.545 18.53a5.811 5.811 0 0 0-4.36-1.968H35.623v-3.875A9.687 9.687 0 0 0 25.936 3 1.937 1.937 0 0 0 24.2 4.07l-9.15 18.305H4.624A3.875 3.875 0 0 0 .748 26.25v21.313a3.875 3.875 0 0 0 3.875 3.874h41.656a5.812 5.812 0 0 0 5.77-5.085l2.906-23.25a5.813 5.813 0 0 0-1.41-4.573ZM4.623 26.25h9.688v21.313H4.622V26.25Zm46.486-3.633-2.907 23.25a1.937 1.937 0 0 1-1.923 1.696H18.185V24.77l8.891-17.784a5.813 5.813 0 0 1 4.672 5.702V18.5a1.938 1.938 0 0 0 1.937 1.938h15.5a1.937 1.937 0 0 1 1.923 2.18Z"/></svg>
